X:121
M:6/8
L:1/8
Q:3/8=100
K:C
d2 f e2 g|fdc BAG|def efg|afe dcB|cdc ceg|aff f2 d|gag gec|cdB c3:|

